!!!!SEGMENT: pl-kk--kk-i-1--048-004_szadek-tomasz--officium-dies-est-laetitiae-sanctus.krn
!!!cenid: 15xx:764
!!!COM: Szadek, Tomasz
!!!COM-rismid: pe30020506
!!!CDT:
!!!CNT:
!!!OPR: Officium Dies est laetitiae
!!!OTL: Sanctus
!!!OMV: 004
!!!PDT:
!!!AGN:
!!!SMS-siglum: PL-Kk
!!!SMS-shelfmark: Kk.I.1
!!!SMS-shelfwork: 048-004 M
!!!SMS-variant:
!!!SMS-altvar:
!!!NIFC-rismid: 300258002
!!!URL-scan: http://repozytorium.nifc.pl/skany/pl-kk-nut--i-1
!!!ONB-nifc: UWAGA: Cantus (s. 145v-152r, skan 0148-0154), Altus (s. 140v-147r, skan 0334-0340), Tenor (s. 119v-126v, skan 0510-0517), Bassus (s. 132v-139r, skan 0695-0701). Części Mszy: 1. Kyrie, 2. Et in terra, 3. Patrem, 4. Sanctus
!!!key: F
**kern	**text	**kern	**text	**kern	**text	**kern	**text
*part4	*part4	*part3	*part3	*part2	*part2	*part1	*part1
*staff4	*staff4	*staff3	*staff3	*staff2	*staff2	*staff1	*staff1
*I"BASSVS	*	*I"TENOR	*	*I"ALTVS	*	*I"CANTVS	*
*I'B	*	*I'T	*	*I'A	*	*I'S	*
*ICvox	*	*ICvox	*	*ICvox	*	*ICvox	*
*Ibass	*	*Itenor	*	*Ialto	*	*Isoprn	*
*clefF4	*	*clefC4	*	*clefC4	*	*clefC3	*
*k[b-]	*	*k[b-]	*	*k[b-]	*	*k[b-]	*
*F:	*	*F:	*	*F:	*	*F:	*
*yyM2/1	*	*yyM2/1	*	*yyM2/1	*	*yyM2/1	*
*yymet(C|)	*	*yymet(C|)	*	*yymet(C|)	*	*yymet(C|)	*
=1	=1	=1	=1	=1	=1	=1	=1
!!LO:TX:t=P:problem: w źródle brak oznaczenia metrum	!	!	!	!	!	!	!
!	!	!	!	!	!	!LO:TX:t=P:problem:we wszystkich głosach są kreski taktowe zaznaczane "oddechami". Ponieważ wszystkie pokrywają się z naszymi współczesnymi kreskami taktowymi, nie oznaczam tego, bo musiałyby być wszędzie, a treści nie niosą żadnej. 	!
0r	.	0r	.	0F	SAn-	2.F/	SA-
.	.	.	.	.	.	4G/	.
.	.	.	.	.	.	4A/	.
.	.	.	.	.	.	4B-/	-N-
.	.	.	.	.	.	1c	.
=2	=2	=2	=2	=2	=2	=2	=2
*	*	*	*	*lig	*	*	*
0r	.	0r	.	1G	.	.	.
.	.	.	.	.	.	2B-/	-c-
.	.	.	.	1A	.	2c/	.
.	.	.	.	.	.	2c/	.
*	*	*	*	*Xlig	*	*	*
=3	=3	=3	=3	=3	=3	=3	=3
2.BB-/	.	0F	SAn-	1.B-	.	4d\	-tus
.	.	.	.	.	.	4c\	.
.	.	.	.	.	.	4d\	.
4C/	.	.	.	.	.	4e\	.
4D\	.	.	.	.	.	2.f\	.
4E\	.	.	.	.	.	.	.
1F	.	.	.	2A\	.	.	.
.	.	.	.	.	.	4e\	.
=4	=4	=4	=4	=4	=4	=4	=4
*	*	*lig	*	*	*	*	*
.	.	1G	.	2B-\	-ctus	2d\	.
!	!	!	!	!	!	!LO:SIC:v:t=custos c	!
*	*	*	*	*	*ij	*	*
2E\	.	.	.	2.c\	SAn-	2e\	.
!	!	!	!	!	!	!LO:LB:g=original	!
*	*	*	*	*	*	*lig	*
1F	.	1A	.	.	.	1c	.
.	.	.	.	4B-\	.	.	.
.	.	.	.	2A\	.	.	.
*	*	*Xlig	*	*	*	*	*
=5	=5	=5	=5	=5	=5	=5	=5
*lig	*	*lig	*	*	*	*	*
1BB-	.	1B-	-ctus	4G/	.	1d	.
.	.	.	.	4F/	.	.	.
.	.	.	.	1F	.	.	.
*	*	*	*	*	*	*Xlig	*
1C	.	1G	.	.	.	1c	.
.	.	.	.	2E/	-ctus	.	.
*Xlig	*	*Xlig	*	*	*	*	*
=6	=6	=6	=6	=6	=6	=6	=6
1D	.	1F	.	1A	SAn-	1r	.
*lig	*	*	*	*	*	*lig	*
1E-X	.	2r	.	2.G/	.	1B-	Sanc-
.	.	1G	.	.	.	.	.
.	.	.	.	4F/	.	.	.
=7	=7	=7	=7	=7	=7	=7	=7
1C	.	.	.	4E/	.	1c	.
.	.	.	.	4D/	.	.	.
.	.	2G/	.	2E/	.	.	.
*Xlig	*	*lig	*ij	*	*	*Xlig	*
1BB-	.	1D	SAn-	1F	.	4d\	.
.	.	.	.	.	.	4c\	.
.	.	.	.	.	.	4B-/	-tus
.	.	.	.	.	.	4A/	.
=8	=8	=8	=8	=8	=8	=8	=8
*	*	*col	*	*	*	*	*
2r	.	2.E/	.	4C/	.	1G	.
.	.	.	.	4D/	.	.	.
1C	.	.	.	4E/	.	.	.
*	*	*Xlig	*	*	*	*	*
!	!	!	!	!LO:SIC:v:t=custos G	!	!	!
.	.	4D/	.	4F/	.	.	.
*	*	*Xcol	*	*	*	*	*
!	!	!	!	!LO:LB:g=original	!	!	!
.	.	4E/	.	2G/	.	1c	.
.	.	4F/	.	.	.	.	.
2C/	.	2.G/	.	2E/	.	.	.
=9	=9	=9	=9	=9	=9	=9	=9
2GG/	.	.	.	2D/	.	2B-/	.
.	.	4F/	.	.	.	.	.
2AA/	.	1F	.	2C/	.	2A/	.
2BB-/	.	.	.	2D/	.	1G	.
2C/	.	2E/	.	2E/	.	.	.
=10	=10	=10	=10	=10	=10	=10	=10
00FF;	.	00F	-ctus	2C/	-ctus	2F/	.
*	*	*	*Xij	*	*Xij	*	*
.	.	.	.	2.c\	S(an)-	2.A/	.
.	.	.	.	4B-\	-ctus	4G/	.
.	.	.	.	4A\	.	4A/	.
.	.	.	.	4G\	.	4B-/	.
=11	=11	=11	=11	=11	=11	=11	=11
!	!	!	!	!	!	!LO:SIC:v:t=custos c	!
.	.	.	.	0A	.	0c	.
!	!	!	!	!	!	!LO:LB:g=original	!
=12||	=12||	=12||	=12||	=12||	=12||	=12||	=12||
1.C	Sanc-	0r	.	0r	.	0r	.
2C/	-tus	.	.	.	.	.	.
=13	=13	=13	=13	=13	=13	=13	=13
1D	.	0r	.	2F/	Sanc-	0r	.
.	.	.	.	2F/	-tus	.	.
!LO:TX:t=P:problem:# above	!	!	!	!	!	!	!
!LO:N:acc=#	!	!	!	!	!	!	!
1En	do-	.	.	1G	.	.	.
=14	=14	=14	=14	=14	=14	=14	=14
2.F\	-mi-	0r	.	1A	do-	2c/	SAnc-
.	.	.	.	.	.	2c/	-tus
4E\	.	.	.	.	.	.	.
2D/	-nus	.	.	1B-	-mi-	1d	.
2BB-/	.	.	.	.	.	.	.
=15	=15	=15	=15	=15	=15	=15	=15
1C	De-	1r	.	1G	-nus	1e	Do-
1FF	-us	2F/	SANC-	4A/	de-	1f	-mi-
.	.	.	.	4G/	-us	.	.
!	!	!	!	!LO:SIC:v:t=custos c	!	!	!
.	.	2F/	-TVS	1c	Sab-	.	.
!	!	!	!	!LO:LB:g=original	!	!	!
=16	=16	=16	=16	=16	=16	=16	=16
0r	.	1G	D(o-	.	.	1d	-nus
.	.	.	.	2B-\	.	.	.
.	.	1A	-mi)-	1c	-ba-	4c/	de-
.	.	.	.	.	.	4d/	-us
.	.	.	.	.	.	4e\	.
.	.	.	.	.	.	4f\	.
=17	=17	=17	=17	=17	=17	=17	=17
*	*ij	*	*	*	*	*	*
2BB-/	Sanc-	1B-	-nus	1d	-ot	4g\	.
.	.	.	.	.	.	4f\	ſab-
2BB-/	-tus	.	.	.	.	1f	-ba-
*	*	*	*	*	*ij	*	*
1C	do-	1G	de-	2.c\	Sab-	.	.
.	.	.	.	.	.	2e\	-ot
.	.	.	.	4B-\	.	.	.
=18	=18	=18	=18	=18	=18	=18	=18
1D	-mi-	2F/	-us	4A/	-ba-	1f	.
.	.	.	.	4G/	.	.	.
.	.	2A/	Sab-	2F/	-ot	.	.
*	*	*	*	*	*Xij	*	*
1E-X	-nus	2.G/	-ba-	2B-\	ſanc-	2r	.
!	!	!	!	!	!	!LO:TX:a:t=2	!
*	*	*	*	*	*	*	*ij
.	.	.	.	2B-\	-tus	1g	Do-
.	.	4F/	.	.	.	.	.
=19	=19	=19	=19	=19	=19	=19	=19
1C	De-	4E/	.	2c\	do-	.	.
.	.	4D/	.	.	.	.	.
.	.	2E/	.	4G/	-mi-	2g\	-mi-
.	.	.	.	4A/	.	.	.
0BB-	-us	2F/	-oth	4B-\	.	2f\	-nus
.	.	.	.	4c\	.	.	.
.	.	1F	Do-	2.d\	-nus	2.f\	de-
*	*Xij	*	*	*	*	*	*
=20	=20	=20	=20	=20	=20	=20	=20
.	.	.	.	.	.	.	.
.	.	.	.	4c\	.	4e\	.
.	.	2F/	-mi-	4B-\	.	4d\	.
.	.	.	.	4A\	.	4c/	.
!	!	!LO:SIC:v:t=custos D	!	!	!	!	!
1r	.	1G	-nu(s)	2G/	.	4B-/	.
.	.	.	.	.	.	4A/	.
.	.	.	.	1B-	do-	2G/	.
!	!	!LO:LB:g=original	!	!	!	!	!
=21	=21	=21	=21	=21	=21	=21	=21
!	!	!	!	!	!	!LO:SIC:v:t=custos B-	!
1.BB-	Do-	2.D/	de-	.	.	1F	.
.	.	.	.	2B-\	-mi-	.	.
.	.	4E/	.	.	.	.	.
!	!	!	!	!	!	!LO:LB:g=original	!
.	.	4F/	-us	1d	-nus	1B-	-us
.	.	4G/	.	.	.	.	.
!LO:SIC:v:t=custos C	!	!	!	!	!	!	!
2BB-/	-mi-	1F	ſab-	.	.	.	.
!LO:LB:g=original	!	!	!	!	!	!	!
=22	=22	=22	=22	=22	=22	=22	=22
1C	-nus	.	.	1G	De-	1r	.
.	.	2E/	-ba-	.	.	.	.
!	!	!	!	!LO:SIC:v:t=custos F	!	!	!
2GG/	De-	1D	-oth.	1G	-us	1.B-	Do-
2GG/	-us	.	.	.	.	.	.
!	!	!	!	!LO:LB:g=original	!	!	!
=23	=23	=23	=23	=23	=23	=23	=23
1BB-	Sa-	2r	.	2.F/	Sab-	.	.
*	*	*	*ij	*	*	*	*
.	.	1F	Do-	.	.	2B-/	-mi-
.	.	.	.	4G/	.	.	.
1FF	-ba-	.	.	4A/	.	1c	-nus
.	.	.	.	4G/	.	.	.
.	.	2F/	-mi-	4A/	.	.	.
.	.	.	.	4B-/	.	.	.
=24	=24	=24	=24	=24	=24	=24	=24
2C/	-ot	1G	-nu(s)	2c\	.	4G/	de-
.	.	.	.	.	.	4A/	.
*	*ij	*	*	*	*	*	*
2.GG/	De-	.	.	2.d\	.	4B-/	.
.	.	.	.	.	.	4c/	.
.	.	1D	de-	.	.	1d	.
4AA/	.	.	.	4c\	.	.	.
2BB-/	-us	.	.	4B-\	.	.	.
.	.	.	.	4A\	.	.	.
=25	=25	=25	=25	=25	=25	=25	=25
2C/	.	2E/	-us	2G/	.	2c/	-us
2D/	Sa-	2F/	ſab-	2F/	.	1f	ſab-
1C	-ba-	1G	-ba-	1c	-ba-	.	.
.	.	.	.	.	.	2e\	-ba-
=26	=26	=26	=26	=26	=26	=26	=26
0FF;	-ot	0F	-oth	0A;<	-oth	0f;	-ot
*	*Xij	*	*Xij	*	*	*	*Xij
=27||	=27||	=27||	=27||	=27||	=27||	=27||	=27||
1r	.	0r	.	1r	.	1.c	Ple-
1.F	Ple-	.	.	1.A	Ple-	.	.
.	.	.	.	.	.	2c/	-ni
=28	=28	=28	=28	=28	=28	=28	=28
.	.	0r	.	.	.	2d\	ſunt
2F\	-ni	.	.	2A/	-ni	2c/	.
1G	ſunt	.	.	1B-	ſunt	2B-/	coe-
.	.	.	.	.	.	2G/	-li
=29	=29	=29	=29	=29	=29	=29	=29
1F	coe-	1.c	PLe-	1.A	.	2A/	.
.	.	.	.	.	.	4F/	et
.	.	.	.	.	.	4G/	ter-
2F\	-li	.	.	.	.	4A/	.
.	.	.	.	.	.	4B-/	.
!LO:SIC:v:t=custos BB-	!	!	!	!	!	!	!
2F\	et	2c\	-ni	2A/	coe-	4c/	.
.	.	.	.	.	.	4A/	.
!LO:LB:g=original	!	!	!	!	!	!	!
=30	=30	=30	=30	=30	=30	=30	=30
1BB-	ter-	1d	ſunt	4G/	-li	2.B-/	.
.	.	.	.	4F/	.	.	.
.	.	.	.	1F	et	.	.
!	!	!	!	!	!	!LO:SIC:v:t=custos G	!
.	.	.	.	.	.	4A/	.
!	!	!	!	!	!	!LO:LB:g=original	!
1C	-ra	1c	c(ae)-	.	.	1G	.
!	!	!	!	!LO:SIC:v:t=custos F	!	!	!
.	.	.	.	2E/	ter-	.	.
!	!	!	!	!LO:LB:g=original	!	!	!
=31	=31	=31	=31	=31	=31	=31	=31
2r	.	2.A/	-li	2F/	-ra	2F/	-ra
*	*	*	*	*	*ij	*	*
2F\	coe-	.	.	1c	ple-	2r	.
.	.	4G/	e(t)	.	.	.	.
2F\	-li	4A/	.	.	.	2f\	c(ae)-
.	.	4B-\	ter-	.	.	.	.
2A\	et	1c	-ra	2c\	-ni	2e\	-li
=32	=32	=32	=32	=32	=32	=32	=32
1G	t(er)-	.	.	1d	ſunt	2g\	et
.	.	2B-\	.	.	.	2g\	t(e)r-
2C/	-ra	1c	.	4c\	coe-	2e\	-ra.
.	.	.	.	4B-\	.	.	.
*	*ij	*	*	*	*	*	*
1F	coe-	.	.	4A\	.	1c	ple-
.	.	.	.	4G\	.	.	.
=33	=33	=33	=33	=33	=33	=33	=33
.	.	2r	.	2A/	-li	.	.
2E\	.	2G/	c(ae)-	2.G/	et	2c/	-ni
2D/	-li	2A/	-li	.	.	1d	ſunt
.	.	.	.	4F/	.	.	.
2BB-/	et	2B-\	et	1F	ter-	.	.
=34	=34	=34	=34	=34	=34	=34	=34
1C	t(er)-	1G	t(e)r-	.	.	2.c/	c(ae)-
.	.	.	.	2E/	.	.	.
.	.	.	.	.	.	4B-/	.
!	!	!LO:SIC:v:t=custos c	!	!	!	!	!
2D\	.	1F	-ra	2F/	.	2A/	-li
1F	.	.	.	2D/	.	4G/	.
.	.	.	.	.	.	4F/	et
!	!	!LO:LB:g=original	!	!	!	!	!
=35	=35	=35	=35	=35	=35	=35	=35
.	.	2r	.	1C	-ra	1G	t(e)r-
2E\	.	1c	Ple-	.	.	.	.
*	*	*	*	*	*Xij	*	*
2F\	-ra	.	.	2r	.	1A	-ra
*	*Xij	*	*	*	*	*	*
2F\	coe-	2c\	-ni	2F/	coe-	.	.
=36	=36	=36	=36	=36	=36	=36	=36
4BB-/	-li	1d	ſunt	1B-	-li	2r	.
4C/	.	.	.	.	.	.	.
4D/	.	.	.	.	.	1f	gl(o-
4E/	.	.	.	.	.	.	.
2F\	.	2.c\	.	2A/	e(t)	.	.
!LO:SIC:v:t=custos D	!	!	!	!	!	!	!
2C/	et	.	.	2G/	t(er)-	2e\	-ri)-
.	.	4B-\	c(ae)-	.	.	.	.
!LO:LB:g=original	!	!	!	!	!	!	!
=37	=37	=37	=37	=37	=37	=37	=37
1D	ter-	2A/	-li	4F/	-ra	4d\	-a
.	.	.	.	4G/	.	4c\	tu-
.	.	4G/	et	4A/	.	2.f\	-a
.	.	4F/	.	4B-/	.	.	.
1C	-ra	1G	t(e)r-	2c\	.	.	.
.	.	.	.	.	.	8e\	.
.	.	.	.	.	.	8d\	.
!	!	!	!	!LO:SIC:v:t=custos c	!	!	!
.	.	.	.	2c\	glo-	2e\	.
!	!	!	!	!LO:LB:g=original	!	!	!
=38	=38	=38	=38	=38	=38	=38	=38
2r	.	1F	-ra.	2.c\	-ri-	0f	.
2F\	glo-	.	.	.	.	.	.
.	.	.	.	4B-\	.	.	.
1F	-ri-	2r	.	4A/	.	.	.
.	.	.	.	4G/	.	.	.
.	.	2c\	Glo-	2A\	-a	.	.
=39	=39	=39	=39	=39	=39	=39	=39
2C/	-a	2.c\	-ri-	2G/	tu-	1r	.
2C/	tu-	.	.	2G/	-a	.	.
.	.	4B-\	-a	.	.	.	.
*	*	*	*	*	*ij	*	*
2D/	-a	4A\	.	2F/	glo-	2r	.
.	.	4G/	.	.	.	.	.
!	!	!	!	!	!	!LO:SIC:v:t=custos d	!
*	*ij	*	*	*	*	*	*
2AA/	glo-	2A/	tu-	2E/	.	2c/	.
!	!	!	!	!	!	!LO:LB:g=original	!
=40	=40	=40	=40	=40	=40	=40	=40
2BB-/	-ri-	4G/	.	2D/	-ri-	2d\	.
.	.	4F/	.	.	.	.	.
2AA/	-a	1F	.	2F/	-a	2c/	.
1GG	tu-	.	.	1G	tu-	1B-	.
.	.	2E/	-a	.	.	.	.
=41	=41	=41	=41	=41	=41	=41	=41
!	!	!LO:N:vis=1	!	!	!	!	!
0FF;	-a	0F;	.	0C;	-a	0A	.
*	*Xij	*	*	*	*Xij	*	*
=42||	=42||	=42||	=42||	=42||	=42||	=42||	=42||
1.F	Be-	1c	BE-	1.A	Be-	1.f	Be-
.	.	1c	-Ne-	.	.	.	.
2C/	-ne-	.	.	2G/	-ne-	2e\	-ne-
=43	=43	=43	=43	=43	=43	=43	=43
4BB-/	-di-	1d	-di-	1B-	-dic-	1f	-dic-
4C/	.	.	.	.	.	.	.
4D/	.	.	.	.	.	.	.
4E/	.	.	.	.	.	.	.
4F\	-ctus	2.c\	-ctus	2.A/	-tus	1f	-tus
4E\	.	.	.	.	.	.	.
4F\	.	.	.	.	.	.	.
!LO:SIC:v:t=custos A	!	!	!	!	!	!	!
4G\	.	4B-\	.	4G/	.	.	.
!LO:LB:g=original	!	!	!	!	!	!	!
=44	=44	=44	=44	=44	=44	=44	=44
1A	qui	4A/	qui	2F/	.	4c\	qui
.	.	4G/	.	.	.	4d\	.
!	!	!	!	!LO:SIC:v:t=custos d	!	!	!
.	.	1c	Ve-	2A\	qui	4e\	.
.	.	.	.	.	.	4f\	ve-
!	!	!	!	!LO:LB:g=original	!	!	!
1G	Ve-	.	.	1d	Ve-	2.g\	.
.	.	2B-\	-nit	.	.	.	.
.	.	.	.	.	.	4f\	.
=45	=45	=45	=45	=45	=45	=45	=45
2C/	-nit	1c	.	2c\	-nit	4e\	.
.	.	.	.	.	.	4d\	.
2C/	in	.	.	2G/	in	1c	-nit
1D	no-	1r	.	1F	no-	.	.
.	.	.	.	.	.	2B-/	.
=46	=46	=46	=46	=46	=46	=46	=46
2C/	-mi-	2r	.	2G/	-mi-	2c/	.
2AA/	-(n)e	2c\	In	2A/	-ne	2c/	.
2BB-/	d(o-	1d	no-	4G/	.	1B-	.
.	.	.	.	4F/	.	.	.
2BB-/	-mi)-	.	.	1F	do-	.	.
=47	=47	=47	=47	=47	=47	=47	=47
2C/	-ni	2.c\	-mi-	.	.	1G	.
*	*ij	*	*	*	*	*	*
2C/	in	.	.	2E/	-mi-	.	.
.	.	4B-\	-ne	.	.	.	.
2D/	no-	2A/	.	2F/	-ni	2r	.
2GG/	-mi-	2B-/	.	2.G/	.	2d\	in
=48	=48	=48	=48	=48	=48	=48	=48
!	!	!	!	!	!	!LO:SIC:v:t=custos B-	!
2D/	-(n)e	2A/	do-	.	.	2d\	no-
.	.	.	.	4F/	.	.	.
!	!	!	!	!	!	!LO:LB:g=original	!
2D/	d(o-	4G/	.	1F	.	2B-/	-mi-
.	.	4F/	-mi-	.	.	.	.
!	!	!LO:SIC:v:t=custos A	!	!	!	!	!
1C	-mi)-	1G	.	.	.	2c/	-ne
.	.	.	.	2E/	.	2.c/	do-
!	!	!LO:LB:g=original	!	!	!	!	!
=49	=49	=49	=49	=49	=49	=49	=49
2FF/	-ni	2A/	-ni	1F	.	.	.
.	.	.	.	.	.	4B-/	.
2F\	in	1c	In	.	.	2A/	-mi-
1G	.	.	.	1r	.	2G/	-ni
*	*	*	*	*	*ij	*	*ij
.	.	2B-\	no-	.	.	2d\	in
=50	=50	=50	=50	=50	=50	=50	=50
2.F\	no-	2.A/	-mi-	1c	in	2.f\	no-
!LO:SIC:v:t=custos D	!	!	!	!	!	!	!
4E\	.	4G/	.	.	.	4g\	.
!LO:LB:g=original	!	!	!	!	!	!	!
2D\	-mi-	2F/	-ne	2f\	no-	2a\	-mi-
2E-X\	-(n)e	2G/	do-	2B-\	-mi-	2.g\	-ne
=51	=51	=51	=51	=51	=51	=51	=51
1D	d(o-	2A/	.	2d\	-ne	.	.
.	.	.	.	.	.	4f\	.
.	.	4G/	-mi-	2B-\	do-	1f	do-
.	.	4F/	.	.	.	.	.
1C	-mi)-	1G	-ni	1c	-mi-	.	.
.	.	.	.	.	.	2e\	-mi-
=52	=52	=52	=52	=52	=52	=52	=52
0FF	-ni	0F	.	0A;<	-ni	0f	-ni
*	*Xij	*	*	*	*Xij	*	*Xij
==	==	==	==	==	==	==	==
*-	*-	*-	*-	*-	*-	*-	*-
!!!system-decoration: [(s1,s2,s3,s4)]
!!!ENC: Mateusz Solarz
!!!END: 2022-03-10
!!!RDF**kern: l = terminal long
!!!RDF**kern: > = above
!!!RDF**kern: < = below
!!!ENC: Mateusz Solarz
!!!END: 2022-03-09
!!!AIN: 1 alto 1 bass 1 soprn 1 tenor
!!!ENC: Jan Barakat
!!!END: 2022-03-14
